X:625
T:Grumbling Old Man and Woman, The
T:Growling Old Man and the Cackling Old Lady, The
T:Le bonhomme et la bonne femme chicaneux
T:Growling Old Man and Grumbling Old Woman
T:La Chicaneuse
R:reel
H:French Canadian.
D:Louis Beaudoin
Z:id:hn-reel-625
M:C|
K:Ador
A,B, | CA,EA, CA,EA, | B,G,DG, B,G,DG, | CA,EA, CA,EA, | B,A,G,B, A,2 :|
z2 | e2ed ^cdef | g2gf ed^cd | efed ^cded | eaa^g a2ef |
=gfed ^cdef | g2ge dBGB | =c2Bc AGEF | GEDB, A,2 ||
P:variations
|: A,B, | CA,EA, CA,EA, | B,G,DG, B,G,DG, | CA,EA, CA,EA, | B,G,DB, A,2 :|
|: ^cd | efed ^cdef | ged=c BGGB | efed ^cAcd | eaa^g a2ef |
=gfed cdef | ged=c BGGB | =c2B2 AGED | GEDB, A,2 :|

